X:3
T:Sally's Waltz
C:Emile Benoit
M:3/4
K:G
L:1/8
cBA | "G" G3 EDB, | G,3 B,DG | "C" E3 CEG | "D" D3 FGA |1 "G" B2 d2 e | d3 BAG | "Am" A3 GAB | "D7" A3 :|2
"G" B2 d3 B | "D7" c2 B2 A2 | "G" G3 FGA | G3 || fga | "G" b3 agf | "D" a3 gfe | "C" g4 fg | "G" d3 def | g2 d2 BG |
"C" e3 dcB | "Em" B2 A3 G | "D" A3 cBA | "G" G3 EDB, | G,3 B,DG | "C" E3 CEG | "D" D3 FGA | "G" B2 d3 B | "D7" c2 B2 A2 | "G" G3 FGA | G3 |]

